images/svg/facebook-icon.svg

<svg width="22" height="20" viewBox="0 0 22 20" fill="none" xmlns="http://www.w3.org/2000/svg">
<path d="M16.0068 1.66675H13.339C12.1597 1.66675 11.0287 2.10573 10.1948 2.88714C9.36096 3.66854 8.89249 4.72835 8.89249 5.83342V8.33342H6.22461V11.6667H8.89249V18.3334H12.4497V11.6667H15.1176L16.0068 8.33342H12.4497V5.83342C12.4497 5.6124 12.5434 5.40044 12.7101 5.24416C12.8769 5.08788 13.1031 5.00008 13.339 5.00008H16.0068V1.66675Z" fill="white"/>
</svg>

<svg xmlns="http://www.w3.org/2000/svg" width="22" height="20" fill="none"><path fill="#fff" d="M16.007 1.667h-2.668c-1.18 0-2.31.439-3.144 1.22-.834.782-1.303 1.841-1.303 2.946v2.5H6.225v3.334h2.667v6.666h3.558v-6.666h2.668l.889-3.334H12.45v-2.5c0-.22.093-.433.26-.589A.92.92 0 0 1 13.34 5h2.668V1.667Z"/></svg>
